**kern	**silbe	**kern	**silbe	**harmony	**phrase	**leadinstrument	**rhyme	**timestamp	**harte
*ICvox	*	*ICvox	*	*M4/4	*	*	*	*	*M4/4
*VRlead	*	*VRharmonize	*	*	*	*	*	*	*
*Hstimme	*	*Nstimme	*	*	*	*	*	*	*
*C:	*	*C:	*	*C:	*	*	*	*	*C:
*M4/4	*	*M4/4	*	*	*	*	*	*	*
*clefF4	*	*clefF4	*	*	*	*	*	*	*
r;	.	r;	.	1r;	.	r	.	0	N.C.
=1	=1	=1	=1	=1	=1	=1	=1	=1	=1
*>Letter>A	*>Letter>A	*>Letter>A	*>Letter>A	*>Letter>A	*>Letter>A	*>Letter>A	*>Letter>A	*>Letter>A	*>Letter>A
*>Label>Intro	*>Label>Intro	*>Label>Intro	*>Label>Intro	*>Label>Intro	*>Label>Intro	*>Label>Intro	*>Label>Intro	*>Label>Intro	*>Label>Intro
1r	.	1r	.	1N	newline	drums	.	0.395	N.C.
=2	=2	=2	=2	=2	=2	=2	=2	=2	=2
1r	.	2r	.	1N	.	drums	.	2.506	N.C.
.	.	4r	.	.	.	.	.	.	.
.	.	4BB	A-	.	.	.	.	.	.
=3	=3	=3	=3	=3	=3	=3	=3	=3	=3
1r	.	8C	-ru-	1N	newline	voice	.	4.617	N.C.
.	.	8C	-ba,	.	.	.	a	.	.
.	.	8r	.	.	.	.	.	.	.
.	.	8BB	Ja-	.	.	.	.	.	.
.	.	8C	-mai-	.	.	.	(A	.	.
.	.	8C	-ca,	.	.	.	a)	.	.
.	.	8r	.	.	.	.	.	.	.
.	.	8C	ooh	.	.	.	.	.	.
=4	=4	=4	=4	=4	=4	=4	=4	=4	=4
1r	.	8D	_	1N	.	voice	.	6.69	N.C.
.	.	8C	I	.	.	.	.	.	.
.	.	8C	want	.	.	.	.	.	.
.	.	8BB	to	.	.	.	.	.	.
.	.	8C	take	.	.	.	(A	.	.
.	.	8C	ya	.	.	.	a)	.	.
.	.	8r	.	.	.	.	.	.	.
.	.	8E	Ber-	.	.	.	.	.	.
=5	=5	=5	=5	=5	=5	=5	=5	=5	=5
1r	.	8F	-mu-	1N	newline	voice	.	8.762	N.C.
.	.	8F	-da,	.	.	.	a	.	.
.	.	8r	.	.	.	.	.	.	.
.	.	8E	Ba-	.	.	.	.	.	.
.	.	8F	-ha-	.	.	.	(B	.	.
.	.	8F	-ma,	.	.	.	b)	.	.
.	.	8r	.	.	.	.	.	.	.
.	.	8F	come	.	.	.	.	.	.
=6	=6	=6	=6	=6	=6	=6	=6	=6	=6
1r	.	8G	_	1N	.	voice	.	10.822	N.C.
.	.	8F	on	.	.	.	.	.	.
.	.	8F	pret-	.	.	.	.	.	.
.	.	8E	-ty	.	.	.	.	.	.
.	.	8F	ma-	.	.	.	(B	.	.
.	.	8F	-ma	.	.	.	b)	.	.
.	.	8r	.	.	.	.	.	.	.
.	.	8BB	Key	.	.	.	.	.	.
=7	=7	=7	=7	=7	=7	=7	=7	=7	=7
1r	.	8C	Lar-	1N	newline	voice	.	12.882	N.C.
.	.	8C	-go,	.	.	.	c	.	.
.	.	8r	.	.	.	.	.	.	.
.	.	8BB	Mon-	.	.	.	.	.	.
.	.	8C	-te-	.	.	.	(C	.	.
.	.	8C	-go,	.	.	.	c)	.	.
.	.	8r	.	.	.	.	.	.	.
.	.	8C	ba-	.	.	.	.	.	.
=8	=8	=8	=8	=8	=8	=8	=8	=8	=8
1r	.	8D	_	1N	.	voice	.	14.957	N.C.
.	.	8C	-by	.	.	.	.	.	.
.	.	8C	why	.	.	.	.	.	.
.	.	8BB	don't	.	.	.	.	.	.
.	.	8C	we	.	.	.	(C	.	.
.	.	8C	go,	.	.	.	c)	.	.
.	.	8r	.	.	.	.	.	.	.
.	.	8E	Ja-	.	.	.	.	.	.
=9	=9	=9	=9	=9	=9	=9	=9	=9	=9
4r	.	8F	-mai-	1N	.	voice	.	17.032	N.C.
.	.	8F	-ca	.	.	.	.	.	.
8G	Off	4r	.	.	.	.	.	.	.
8G	the	.	.	.	.	.	.	.	.
8G	Flo-	2r	.	.	.	.	.	.	.
8A	-ri-	.	.	.	.	.	.	.	.
8B	-da	.	.	.	.	.	.	.	.
[8G	Keys	.	.	.	.	.	.	.	.
=10	=10	=10	=10	=10	=10	=10	=10	=10	=10
*>Letter>B	*>Letter>B	*>Letter>B	*>Letter>B	*>Letter>B	*>Letter>B	*>Letter>B	*>Letter>B	*>Letter>B	*>Letter>B
*>Label>Verse	*>Label>Verse	*>Label>Verse	*>Label>Verse	*>Label>Verse	*>Label>Verse	*>Label>Verse	*>Label>Verse	*>Label>Verse	*>Label>Verse
2.G_	_	1r	.	1CM	newline	voice	.	19.107	C:maj
8G]	_	.	.	.	.	.	.	.	.
8F	_	.	.	.	.	.	.	.	.
=11	=11	=11	=11	=11	=11	=11	=11	=11	=11
2E	_	1r	.	1CMM	.	voice	.	21.187	C:maj7
2r	.	.	.	.	.	.	.	.	.
=12	=12	=12	=12	=12	=12	=12	=12	=12	=12
4r	.	1r	.	1Gmm	.	voice	.	23.266	G:min7
8F	there's	.	.	.	.	.	.	.	.
8F	a	.	.	.	.	.	.	.	.
4G	place	.	.	.	.	.	.	.	.
4A	called	.	.	.	.	.	.	.	.
=13	=13	=13	=13	=13	=13	=13	=13	=13	=13
8G	Kok-	1r	.	1FM	.	voice	(D	25.346	F:maj
4F	-o-	.	.	.	.	.	d	.	.
[8C	-mo	.	.	.	.	.	D)	.	.
2C]	_	.	.	.	.	.	.	.	.
=14	=14	=14	=14	=14	=14	=14	=14	=14	=14
4r	.	1r	.	1Fm	newline	voice	.	27.426	F:min
4F	That's	.	.	.	.	.	.	.	.
4.G	where	.	.	.	.	.	.	.	.
8F	you	.	.	.	.	.	.	.	.
=15	=15	=15	=15	=15	=15	=15	=15	=15	=15
8F	want	1r	.	1CM	.	voice	.	29.505	C:maj
4E	to	.	.	.	.	.	.	.	.
8E	go	.	.	.	.	.	D	.	.
8r	.	.	.	.	.	.	.	.	.
8E	to	.	.	.	.	.	.	.	.
8F	get	.	.	.	.	.	.	.	.
8G	a-	.	.	.	.	.	.	.	.
=16	=16	=16	=16	=16	=16	=16	=16	=16	=16
8A	-way	1r	.	1DMm	.	voice	.	31.584	D:7
8D	from	.	.	.	.	.	.	.	.
8D	it	.	.	.	.	.	.	.	.
[8D	all	.	.	.	.	.	.	.	.
4D]	_	.	.	.	.	.	.	.	.
4r	.	.	.	.	.	.	.	.	.
=17	=17	=17	=17	=17	=17	=17	=17	=17	=17
1r	.	1r	.	1GMm	.	voice	.	33.663	G:7
=18	=18	=18	=18	=18	=18	=18	=18	=18	=18
4r	.	1r	.	1CM	newline	voice	.	35.743	C:maj
8G	Bo-	.	.	.	.	.	.	.	.
8G	-dies	.	.	.	.	.	.	.	.
8A	in	.	.	.	.	.	.	.	.
4B	the	.	.	.	.	.	.	.	.
[8G	sand,	.	.	.	.	.	E	.	.
=19	=19	=19	=19	=19	=19	=19	=19	=19	=19
2.G]	_	1r	.	1CMM	.	voice	.	37.805	C:maj7
4r	.	.	.	.	.	.	.	.	.
=20	=20	=20	=20	=20	=20	=20	=20	=20	=20
8r	.	1r	.	1Gmm	.	voice	.	39.868	G:min7
8E	tro-	.	.	.	.	.	.	.	.
8E	-pi-	.	.	.	.	.	.	.	.
8F	-cal	.	.	.	.	.	.	.	.
4G	drink	.	.	.	.	.	.	.	.
8G	mel-	.	.	.	.	.	.	.	.
8A	-ting	.	.	.	.	.	.	.	.
=21	=21	=21	=21	=21	=21	=21	=21	=21	=21
8G	in	1r	.	1FM	.	voice	.	41.931	F:maj
4F	your	.	.	.	.	.	.	.	.
[8C	hand	.	.	.	.	.	E	.	.
4C]	_	.	.	.	.	.	.	.	.
4r	.	.	.	.	.	.	.	.	.
=22	=22	=22	=22	=22	=22	=22	=22	=22	=22
4r	.	1r	.	1Fm	newline	voice	.	43.994	F:min
8F	We'll	.	.	.	.	.	.	.	.
8F	be	.	.	.	.	.	.	.	.
8F	fal-	.	.	.	.	.	.	.	.
8G	-ling	.	.	.	.	.	.	.	.
8F	in	.	.	.	.	.	.	.	.
[8E	love	.	.	.	.	.	.	.	.
=23	=23	=23	=23	=23	=23	=23	=23	=23	=23
8E]	_	1r	.	1CM	.	voice	.	46.063	C:maj
8r	.	.	.	.	.	.	.	.	.
8E	to	.	.	.	.	.	.	.	.
8E	the	.	.	.	.	.	.	.	.
8E	rhy-	.	.	.	.	.	.	.	.
8E	-thm	.	.	.	.	.	.	.	.
8F	of	.	.	.	.	.	.	.	.
8G	a	.	.	.	.	.	.	.	.
=24	=24	=24	=24	=24	=24	=24	=24	=24	=24
8A	steel	1r	.	1DMm	.	voice	.	48.133	D:7
4D	drum	.	.	.	.	.	.	.	.
[8D	band	.	.	.	.	.	E	.	.
4D]	_	.	.	.	.	.	.	.	.
4r	.	.	.	.	.	.	.	.	.
=25	=25	=25	=25	=25	=25	=25	=25	=25	=25
4r	.	2r	.	1GMm	.	voice	.	50.203	G:7
8F	Down	.	.	.	.	.	.	.	.
8E	in	.	.	.	.	.	.	.	.
8F	Ko	4r	.	.	.	.	(D	.	.
8E	_	.	.	.	.	.	.	.	.
8C	ko-	8r	.	.	.	.	d	.	.
[8C	-mo	8BB	A-	.	.	.	D)	.	.
=26	=26	=26	=26	=26	=26	=26	=26	=26	=26
*>Letter>C	*>Letter>C	*>Letter>C	*>Letter>C	*>Letter>C	*>Letter>C	*>Letter>C	*>Letter>C	*>Letter>C	*>Letter>C
*>Label>Chorus	*>Label>Chorus	*>Label>Chorus	*>Label>Chorus	*>Label>Chorus	*>Label>Chorus	*>Label>Chorus	*>Label>Chorus	*>Label>Chorus	*>Label>Chorus
2C]	_	8C	-ru-	1CM	newline	voice	.	52.273	C:maj
.	.	8C	-ba,	.	.	.	a	.	.
.	.	8r	.	.	.	.	.	.	.
.	.	8BB	Ja-	.	.	.	.	.	.
2r	.	8C	-mai-	.	.	.	(A	.	.
.	.	8C	-ca,	.	.	.	a)	.	.
.	.	8r	.	.	.	.	.	.	.
.	.	8C	ooh	.	.	.	.	.	.
=27	=27	=27	=27	=27	=27	=27	=27	=27	=27
1r	.	8D	_	1CM	.	voice	.	54.347	C:maj
.	.	8C	I	.	.	.	.	.	.
.	.	8C	want	.	.	.	.	.	.
.	.	8BB	to	.	.	.	.	.	.
.	.	8C	take	.	.	.	(A	.	.
.	.	8C	ya	.	.	.	a)	.	.
.	.	8r	.	.	.	.	.	.	.
.	.	8E	Ber-	.	.	.	.	.	.
=28	=28	=28	=28	=28	=28	=28	=28	=28	=28
1r	.	8F	-mu-	1FM	.	voice	.	56.421	F:maj
.	.	8F	-da,	.	.	.	a	.	.
.	.	8r	.	.	.	.	.	.	.
.	.	8E	Ba-	.	.	.	.	.	.
.	.	8F	-ha-	.	.	.	(B	.	.
.	.	8F	-ma,	.	.	.	b)	.	.
.	.	8r	.	.	.	.	.	.	.
.	.	8F	come	.	.	.	.	.	.
=29	=29	=29	=29	=29	=29	=29	=29	=29	=29
1r	.	8G	_	1FM	.	voice	.	58.496	F:maj
.	.	8F	on	.	.	.	.	.	.
.	.	8F	pret-	.	.	.	.	.	.
.	.	8E	-ty	.	.	.	.	.	.
.	.	8F	ma-	.	.	.	(B	.	.
.	.	8F	-ma	.	.	.	b)	.	.
.	.	8r	.	.	.	.	.	.	.
.	.	8BB	Key	.	.	.	.	.	.
=30	=30	=30	=30	=30	=30	=30	=30	=30	=30
2r	.	8C	Lar-	1CM	newline	voice	.	60.57	C:maj
.	.	8C	-go,	.	.	.	c	.	.
.	.	8r	.	.	.	.	.	.	.
.	.	8BB	Mon-	.	.	.	.	.	.
4r	.	8C	-te-	.	.	.	(C	.	.
.	.	8C	-go,	.	.	.	c)	.	.
[4g	Ooh	8r	.	.	.	.	.	.	.
.	.	8C	ba-	.	.	.	.	.	.
=31	=31	=31	=31	=31	=31	=31	=31	=31	=31
8g]	_	8D	_	1CM	.	voice	.	62.641	C:maj
8g	I	8C	-by	.	.	.	.	.	.
8f#	want	8C	why	.	.	.	.	.	.
8g	to	8BB	don't	.	.	.	.	.	.
8f#	take	8C	we	.	.	.	(C	.	.
8g	you	8C	go,	.	.	.	c)	.	.
8f#	down	4r	.	.	.	.	.	.	.
8g	to	.	.	.	.	.	.	.	.
=32	=32	=32	=32	=32	=32	=32	=32	=32	=32
8f	Ko-	1r	.	1FM	.	voice	(C	64.712	F:maj
8e	-ko	.	.	.	.	.	c	.	.
8c	_	.	.	.	.	.	C)	.	.
[8c	mo	.	.	.	.	.	.	.	.
8c]	_	.	.	.	.	.	.	.	.
8r	.	.	.	.	.	.	.	.	.
8r	.	.	.	.	.	.	.	.	.
8e	we'll	.	.	.	.	.	.	.	.
=33	=33	=33	=33	=33	=33	=33	=33	=33	=33
8f	get	1r	.	1Fm	.	voice	.	66.782	F:min
4e	there	.	.	.	.	.	.	.	.
[8d	fast	.	.	.	.	.	.	.	.
8d]	_	.	.	.	.	.	.	.	.
8c	and	.	.	.	.	.	.	.	.
8d	then	.	.	.	.	.	.	.	.
8c	we'll	.	.	.	.	.	.	.	.
=34	=34	=34	=34	=34	=34	=34	=34	=34	=34
8d	take	1r	.	1CM	newline	voice	.	68.853	C:maj
4e	it	.	.	.	.	.	.	.	.
[8e	slow	.	.	.	.	.	C	.	.
4e]	_	.	.	.	.	.	.	.	.
4r	.	.	.	.	.	.	.	.	.
=35	=35	=35	=35	=35	=35	=35	=35	=35	=35
4.a	That's	1r	.	1Am	.	voice	.	70.932	A:min
[8g	where	.	.	.	.	.	.	.	.
4g]	_	.	.	.	.	.	.	.	.
8d	we	.	.	.	.	.	.	.	.
8e	_	.	.	.	.	.	.	.	.
=36	=36	=36	=36	=36	=36	=36	=36	=36	=36
8d	want	1r	.	1Dm	.	voice	.	73.012	D:min
8c	_	.	.	.	.	.	.	.	.
8c	to	.	.	.	.	.	.	.	.
8c	go	.	.	.	.	.	C	.	.
8G	_	.	.	.	.	.	.	.	.
8A	_	.	.	.	.	.	.	.	.
4r	.	.	.	.	.	.	.	.	.
=37	=37	=37	=37	=37	=37	=37	=37	=37	=37
8r	.	2r	.	1GM	.	voice	.	75.091	G:maj
8f	way	.	.	.	.	.	.	.	.
8f	down	.	.	.	.	.	.	.	.
8e	in	.	.	.	.	.	.	.	.
8c	Ko-	4r	.	.	.	.	(C	.	.
8G	-ko	.	.	.	.	.	c	.	.
8A	_	8r	.	.	.	.	.	.	.
[8c	mo	8BB	The	.	.	.	C)	.	.
=38	=38	=38	=38	=38	=38	=38	=38	=38	=38
*>Letter>A	*>Letter>A	*>Letter>A	*>Letter>A	*>Letter>A	*>Letter>A	*>Letter>A	*>Letter>A	*>Letter>A	*>Letter>A
*>Label>Interlude	*>Label>Interlude	*>Label>Interlude	*>Label>Interlude	*>Label>Interlude	*>Label>Interlude	*>Label>Interlude	*>Label>Interlude	*>Label>Interlude	*>Label>Interlude
2c]	_	4C	Mar-	1CM	newline	voice	.	77.171	C:maj
.	.	8r	.	.	.	.	.	.	.
.	.	8BB	-ti-	.	.	.	.	.	.
2r	.	4C	-nique,	.	.	.	F	.	.
.	.	8r	.	.	.	.	.	.	.
.	.	8BB	that	.	.	.	.	.	.
=39	=39	=39	=39	=39	=39	=39	=39	=39	=39
1r	.	8C	Mont-	1N	.	voice	.	79.243	N.C.
.	.	8BB	-ser-	.	.	.	.	.	.
.	.	8C	-rat	.	.	.	.	.	.
.	.	8BB	my-	.	.	.	.	.	.
.	.	4C	-stique	.	.	.	F	.	.
.	.	4r	.	.	.	.	.	.	.
=40	=40	=40	=40	=40	=40	=40	=40	=40	=40
*>Letter>B	*>Letter>B	*>Letter>B	*>Letter>B	*>Letter>B	*>Letter>B	*>Letter>B	*>Letter>B	*>Letter>B	*>Letter>B
*>Label>Verse	*>Label>Verse	*>Label>Verse	*>Label>Verse	*>Label>Verse	*>Label>Verse	*>Label>Verse	*>Label>Verse	*>Label>Verse	*>Label>Verse
4r	.	1r	.	1CM	newline	voice	.	81.314	C:maj
8G	We'll	.	.	.	.	.	.	.	.
8G	put	.	.	.	.	.	.	.	.
8A	out	.	.	.	.	.	.	.	.
4B	to	.	.	.	.	.	.	.	.
[8G	sea	.	.	.	.	.	F	.	.
=41	=41	=41	=41	=41	=41	=41	=41	=41	=41
2.G]	_	1r	.	1CMM	.	voice	.	83.395	C:maj7
8F	_	.	.	.	.	.	.	.	.
8E	_	.	.	.	.	.	.	.	.
=42	=42	=42	=42	=42	=42	=42	=42	=42	=42
8r	.	1r	.	1Gmm	.	voice	.	85.476	G:min7
8F	and	.	.	.	.	.	.	.	.
8F	we'll	.	.	.	.	.	.	.	.
8F	per-	.	.	.	.	.	.	.	.
4G	-fect	.	.	.	.	.	.	.	.
4A	our	.	.	.	.	.	.	.	.
=43	=43	=43	=43	=43	=43	=43	=43	=43	=43
8G	che-	1r	.	1FM	.	voice	.	87.556	F:maj
4F	-mis-	.	.	.	.	.	.	.	.
[8C	-try	.	.	.	.	.	F	.	.
2C]	_	.	.	.	.	.	.	.	.
=44	=44	=44	=44	=44	=44	=44	=44	=44	=44
4r	.	1r	.	1Fm	newline	voice	.	89.637	F:min
8F	by	.	.	.	.	.	.	.	.
8F	and	.	.	.	.	.	.	.	.
8F	by	.	.	.	.	.	.	.	.
8G	we'll	.	.	.	.	.	.	.	.
8F	de-	.	.	.	.	.	.	.	.
[8E	-fy	.	.	.	.	.	.	.	.
=45	=45	=45	=45	=45	=45	=45	=45	=45	=45
4E]	_	1r	.	1CM	.	voice	.	91.698	C:maj
8r	.	.	.	.	.	.	.	.	.
8E	a	.	.	.	.	.	.	.	.
8E	lit-	.	.	.	.	.	.	.	.
8E	-tle	.	.	.	.	.	.	.	.
8F	bit	.	.	.	.	.	.	.	.
8G	of	.	.	.	.	.	.	.	.
=46	=46	=46	=46	=46	=46	=46	=46	=46	=46
8A	gra-	1r	.	1DMm	.	voice	.	93.76	D:7
8D	-vi-	.	.	.	.	.	.	.	.
[4D	-ty	.	.	.	.	.	F	.	.
4D]	_	.	.	.	.	.	.	.	.
4r	.	.	.	.	.	.	.	.	.
=47	=47	=47	=47	=47	=47	=47	=47	=47	=47
1r	.	1r	.	1GMm	.	voice	.	95.821	G:7
=48	=48	=48	=48	=48	=48	=48	=48	=48	=48
4r	.	1r	.	1CM	newline	voice	.	97.882	C:maj
8G	Af-	.	.	.	.	.	.	.	.
8G	-ter-	.	.	.	.	.	.	.	.
8A	-noon	.	.	.	.	.	.	.	.
4B	de-	.	.	.	.	.	.	.	.
[8G	light	.	.	.	.	.	G	.	.
=49	=49	=49	=49	=49	=49	=49	=49	=49	=49
2.G]	_	1r	.	1CMM	.	voice	.	99.958	C:maj7
4r	.	.	.	.	.	.	.	.	.
=50	=50	=50	=50	=50	=50	=50	=50	=50	=50
4r	.	1r	.	1Gmm	.	voice	.	102.034	G:min7
4G	cock-	.	.	.	.	.	.	.	.
4.A	-tails	.	.	.	.	.	.	.	.
8G	and	.	.	.	.	.	.	.	.
=51	=51	=51	=51	=51	=51	=51	=51	=51	=51
8G	moon-	1r	.	1FM	.	voice	.	104.11	F:maj
4F	-lit	.	.	.	.	.	.	.	.
[8C	nights	.	.	.	.	.	G	.	.
4C]	_	.	.	.	.	.	.	.	.
4r	.	.	.	.	.	.	.	.	.
=52	=52	=52	=52	=52	=52	=52	=52	=52	=52
8r	.	1r	.	1Fm	newline	voice	.	106.186	F:min
8F	That	.	.	.	.	.	.	.	.
8F	drea-	.	.	.	.	.	.	.	.
8F	-my	.	.	.	.	.	.	.	.
8F	look	.	.	.	.	.	.	.	.
8G	in	.	.	.	.	.	.	.	.
8F	your	.	.	.	.	.	.	.	.
8E	eye	.	.	.	.	.	G	.	.
=53	=53	=53	=53	=53	=53	=53	=53	=53	=53
8r	.	1r	.	1CM	.	voice	.	108.254	C:maj
8E	give	.	.	.	.	.	.	.	.
8E	me	.	.	.	.	.	.	.	.
8E	a	.	.	.	.	.	.	.	.
6E	tro-	.	.	.	.	.	.	.	.
6F	-pi-	.	.	.	.	.	.	.	.
6G	-cal	.	.	.	.	.	.	.	.
=54	=54	=54	=54	=54	=54	=54	=54	=54	=54
4A	con-	1r	.	1DMm	.	voice	.	110.322	D:7
4D	-tact	.	.	.	.	.	.	.	.
2D	high	.	.	.	.	.	G	.	.
=55	=55	=55	=55	=55	=55	=55	=55	=55	=55
8r	.	2r	.	1GMm	.	voice	.	112.389	G:7
8F	Way	.	.	.	.	.	.	.	.
8F	down	.	.	.	.	.	.	.	.
8E	in	.	.	.	.	.	.	.	.
8F	Ko	4r	.	.	.	.	(C	.	.
8E	_	.	.	.	.	.	.	.	.
8C	ko-	8r	.	.	.	.	c	.	.
[8C	-mo	8BB	A-	.	.	.	C)	.	.
=56	=56	=56	=56	=56	=56	=56	=56	=56	=56
*>Letter>C	*>Letter>C	*>Letter>C	*>Letter>C	*>Letter>C	*>Letter>C	*>Letter>C	*>Letter>C	*>Letter>C	*>Letter>C
*>Label>Chorus	*>Label>Chorus	*>Label>Chorus	*>Label>Chorus	*>Label>Chorus	*>Label>Chorus	*>Label>Chorus	*>Label>Chorus	*>Label>Chorus	*>Label>Chorus
2C]	_	8C	-ru-	1CM	newline	voice	.	114.457	C:maj
.	.	8C	-ba,	.	.	.	a	.	.
.	.	8r	.	.	.	.	.	.	.
.	.	8BB	Ja-	.	.	.	.	.	.
2r	.	8C	-mai-	.	.	.	(A	.	.
.	.	8C	-ca,	.	.	.	a)	.	.
.	.	8r	.	.	.	.	.	.	.
.	.	8C	ooh	.	.	.	.	.	.
=57	=57	=57	=57	=57	=57	=57	=57	=57	=57
1r	.	8D	_	1CM	.	voice	.	116.526	C:maj
.	.	8C	I	.	.	.	.	.	.
.	.	8C	want	.	.	.	.	.	.
.	.	8BB	to	.	.	.	.	.	.
.	.	8C	take	.	.	.	(A	.	.
.	.	8C	ya	.	.	.	a)	.	.
.	.	8r	.	.	.	.	.	.	.
.	.	8E	Ber-	.	.	.	.	.	.
=58	=58	=58	=58	=58	=58	=58	=58	=58	=58
1r	.	8F	-mu-	1FM	.	voice	.	118.595	F:maj
.	.	8F	-da,	.	.	.	.	.	.
.	.	8r	.	.	.	.	.	.	.
.	.	8E	Ba-	.	.	.	.	.	.
.	.	8F	-ha-	.	.	.	(B	.	.
.	.	8F	-ma,	.	.	.	b)	.	.
.	.	8r	.	.	.	.	.	.	.
.	.	8F	come	.	.	.	.	.	.
=59	=59	=59	=59	=59	=59	=59	=59	=59	=59
1r	.	8G	_	1FM	.	voice	.	120.664	F:maj
.	.	8F	on	.	.	.	.	.	.
.	.	8F	pret-	.	.	.	.	.	.
.	.	8E	-ty	.	.	.	.	.	.
.	.	8F	ma-	.	.	.	(B	.	.
.	.	8F	-ma	.	.	.	b)	.	.
.	.	8r	.	.	.	.	.	.	.
.	.	8BB	Key	.	.	.	.	.	.
=60	=60	=60	=60	=60	=60	=60	=60	=60	=60
2r	.	8C	Lar-	1CM	newline	voice	.	122.733	C:maj
.	.	8C	-go,	.	.	.	c	.	.
.	.	8r	.	.	.	.	.	.	.
.	.	8BB	Mon-	.	.	.	.	.	.
4r	.	8C	-te-	.	.	.	(C	.	.
.	.	8C	-go,	.	.	.	c)	.	.
[4g	Ooh	8r	.	.	.	.	.	.	.
.	.	8C	ba-	.	.	.	.	.	.
=61	=61	=61	=61	=61	=61	=61	=61	=61	=61
8g]	_	8D	_	1CM	.	voice	.	124.817	C:maj
8g	I	8C	-by	.	.	.	.	.	.
8f#	want	8C	why	.	.	.	.	.	.
8g	to	8BB	don't	.	.	.	.	.	.
8f#	take	8C	we	.	.	.	.	.	.
8g	you	8C	go,	.	.	.	.	.	.
8f#	down	4r	.	.	.	.	.	.	.
8g	to	.	.	.	.	.	.	.	.
=62	=62	=62	=62	=62	=62	=62	=62	=62	=62
8f	Ko-	1r	.	1FM	.	voice	(C	126.9	F:maj
8e	-ko-	.	.	.	.	.	c	.	.
8c	-mo	.	.	.	.	.	C)	.	.
[8c	_	.	.	.	.	.	.	.	.
8c]	_	.	.	.	.	.	.	.	.
8r	.	.	.	.	.	.	.	.	.
8r	.	.	.	.	.	.	.	.	.
8e	we'll	.	.	.	.	.	.	.	.
=63	=63	=63	=63	=63	=63	=63	=63	=63	=63
8f	get	1r	.	1Fm	.	voice	.	128.984	F:min
4e	there	.	.	.	.	.	.	.	.
[8d	fast	.	.	.	.	.	.	.	.
8d]	_	.	.	.	.	.	.	.	.
8c	and	.	.	.	.	.	.	.	.
8d	then	.	.	.	.	.	.	.	.
8c	we'll	.	.	.	.	.	.	.	.
=64	=64	=64	=64	=64	=64	=64	=64	=64	=64
8d	take	1r	.	1CM	newline	voice	.	131.068	C:maj
4e	it	.	.	.	.	.	.	.	.
[8e	slow	.	.	.	.	.	C	.	.
4e]	_	.	.	.	.	.	.	.	.
4r	.	.	.	.	.	.	.	.	.
=65	=65	=65	=65	=65	=65	=65	=65	=65	=65
4.a	That's	1r	.	1Am	.	voice	.	133.154	A:min
[8g	where	.	.	.	.	.	.	.	.
4g]	_	.	.	.	.	.	.	.	.
8d	we	.	.	.	.	.	.	.	.
8e	_	.	.	.	.	.	.	.	.
=66	=66	=66	=66	=66	=66	=66	=66	=66	=66
8d	want	1r	.	1Dm	.	voice	.	135.24	D:min
8c	_	.	.	.	.	.	.	.	.
8c	to	.	.	.	.	.	.	.	.
8c	go,	.	.	.	.	.	C	.	.
8G	_	.	.	.	.	.	.	.	.
8A	_	.	.	.	.	.	.	.	.
4r	.	.	.	.	.	.	.	.	.
=67	=67	=67	=67	=67	=67	=67	=67	=67	=67
8r	.	1r	.	1GM	.	voice	.	137.325	G:maj
8f	way	.	.	.	.	.	.	.	.
8f	down	.	.	.	.	.	.	.	.
8e	in	.	.	.	.	.	.	.	.
8c	Ko-	.	.	.	.	.	(C	.	.
8G	-ko-	.	.	.	.	.	c	.	.
8A	-mo	.	.	.	.	.	C)	.	.
[8c	_	.	.	.	.	.	.	.	.
=68	=68	=68	=68	=68	=68	=68	=68	=68	=68
*>Letter>A	*>Letter>A	*>Letter>A	*>Letter>A	*>Letter>A	*>Letter>A	*>Letter>A	*>Letter>A	*>Letter>A	*>Letter>A
*>Label>Interlude	*>Label>Interlude	*>Label>Interlude	*>Label>Interlude	*>Label>Interlude	*>Label>Interlude	*>Label>Interlude	*>Label>Interlude	*>Label>Interlude	*>Label>Interlude
2c]	_	4C	Port	1CM	newline	voice	.	139.411	C:maj
.	.	8r	.	.	.	.	.	.	.
.	.	8BB	au	.	.	.	.	.	.
2r	.	4C	Prince,	.	.	.	H	.	.
.	.	8r	.	.	.	.	.	.	.
.	.	8BB	I	.	.	.	.	.	.
=69	=69	=69	=69	=69	=69	=69	=69	=69	=69
1r	.	8C	want	1N	.	voice	.	141.474	N.C.
.	.	8BB	to	.	.	.	.	.	.
.	.	8C	catch	.	.	.	.	.	.
.	.	8BB	a	.	.	.	.	.	.
.	.	4C	glimpse	.	.	.	H	.	.
.	.	4r	.	.	.	.	.	.	.
=70	=70	=70	=70	=70	=70	=70	=70	=70	=70
*>Letter>B	*>Letter>B	*>Letter>B	*>Letter>B	*>Letter>B	*>Letter>B	*>Letter>B	*>Letter>B	*>Letter>B	*>Letter>B
*>Label>Solo	*>Label>Solo	*>Label>Solo	*>Label>Solo	*>Label>Solo	*>Label>Solo	*>Label>Solo	*>Label>Solo	*>Label>Solo	*>Label>Solo
1r	.	1r	.	1CM	newline	saxophone	.	143.538	C:maj
=71	=71	=71	=71	=71	=71	=71	=71	=71	=71
1r	.	1r	.	1CMM	.	saxophone	.	.	C:maj7
=72	=72	=72	=72	=72	=72	=72	=72	=72	=72
1r	.	1r	.	1Gmm	.	saxophone	.	.	G:min7
=73	=73	=73	=73	=73	=73	=73	=73	=73	=73
1r	.	1r	.	1FM	.	saxophone	.	.	F:maj
=74	=74	=74	=74	=74	=74	=74	=74	=74	=74
1r	.	1r	.	1Fm	newline	saxophone	.	151.81	F:min
=75	=75	=75	=75	=75	=75	=75	=75	=75	=75
1r	.	1r	.	1CM	.	saxophone	.	.	C:maj
=76	=76	=76	=76	=76	=76	=76	=76	=76	=76
1r	.	1r	.	1DMm	.	saxophone	.	.	D:7
=77	=77	=77	=77	=77	=77	=77	=77	=77	=77
1r	.	1r	.	1GMm	.	saxophone	.	.	G:7
=78	=78	=78	=78	=78	=78	=78	=78	=78	=78
*>Letter>B	*>Letter>B	*>Letter>B	*>Letter>B	*>Letter>B	*>Letter>B	*>Letter>B	*>Letter>B	*>Letter>B	*>Letter>B
*>Label>Verse	*>Label>Verse	*>Label>Verse	*>Label>Verse	*>Label>Verse	*>Label>Verse	*>Label>Verse	*>Label>Verse	*>Label>Verse	*>Label>Verse
4r	.	1r	.	1CM	newline	voice	.	160.082	C:maj
8G	Ev'-	.	.	.	.	.	.	.	.
8G	-ry	.	.	.	.	.	.	.	.
8A	bo-	.	.	.	.	.	.	.	.
4B	-dy	.	.	.	.	.	.	.	.
[8G	knows	.	.	.	.	.	C	.	.
=79	=79	=79	=79	=79	=79	=79	=79	=79	=79
2G_	_	1r	.	1CMM	.	voice	.	.	C:maj7
8G]	_	.	.	.	.	.	.	.	.
8F	_	.	.	.	.	.	.	.	.
4E	_	.	.	.	.	.	.	.	.
=80	=80	=80	=80	=80	=80	=80	=80	=80	=80
8r	.	1r	.	1Gmm	.	voice	.	.	G:min7
8E	a	.	.	.	.	.	.	.	.
8E	lit-	.	.	.	.	.	.	.	.
8F	-tle	.	.	.	.	.	.	.	.
4G	place	.	.	.	.	.	.	.	.
4A	like	.	.	.	.	.	.	.	.
=81	=81	=81	=81	=81	=81	=81	=81	=81	=81
8G	Ko-	1r	.	1FM	.	voice	(C	.	F:maj
4F	-ko-	.	.	.	.	.	c	.	.
[8C	-mo	.	.	.	.	.	C)	.	.
2C]	_	.	.	.	.	.	.	.	.
=82	=82	=82	=82	=82	=82	=82	=82	=82	=82
4r	.	1r	.	1Fm	newline	voice	.	168.378	F:min
4F	Now	.	.	.	.	.	.	.	.
4.G	if	.	.	.	.	.	.	.	.
8F	you	.	.	.	.	.	.	.	.
=83	=83	=83	=83	=83	=83	=83	=83	=83	=83
8F	want	1r	.	1CM	.	voice	.	.	C:maj
4E	to	.	.	.	.	.	.	.	.
8E	go	.	.	.	.	.	C	.	.
8r	.	.	.	.	.	.	.	.	.
8E	and	.	.	.	.	.	.	.	.
8F	get	.	.	.	.	.	.	.	.
8G	a-	.	.	.	.	.	.	.	.
=84	=84	=84	=84	=84	=84	=84	=84	=84	=84
8A	-way	1r	.	1DMm	.	voice	.	.	D:7
8D	from	.	.	.	.	.	.	.	.
8D	it	.	.	.	.	.	.	.	.
[8D	all	.	.	.	.	.	.	.	.
4D]	_	.	.	.	.	.	.	.	.
4r	.	.	.	.	.	.	.	.	.
=85	=85	=85	=85	=85	=85	=85	=85	=85	=85
8r	.	2r	.	1GMm	.	voice	.	.	G:7
8F	Go	.	.	.	.	.	.	.	.
8F	down	.	.	.	.	.	.	.	.
8E	to	.	.	.	.	.	.	.	.
8F	Ko	4r	.	.	.	.	(C	.	.
8E	_	.	.	.	.	.	.	.	.
8C	ko-	8r	.	.	.	.	c	.	.
[8C	-mo	8BB	A-	.	.	.	C)	.	.
=86	=86	=86	=86	=86	=86	=86	=86	=86	=86
*>Letter>C	*>Letter>C	*>Letter>C	*>Letter>C	*>Letter>C	*>Letter>C	*>Letter>C	*>Letter>C	*>Letter>C	*>Letter>C
*>Label>Chorus	*>Label>Chorus	*>Label>Chorus	*>Label>Chorus	*>Label>Chorus	*>Label>Chorus	*>Label>Chorus	*>Label>Chorus	*>Label>Chorus	*>Label>Chorus
2C]	_	8C	-ru-	1CM	newline	voice	.	176.618	C:maj
.	.	8C	-ba,	.	.	.	a	.	.
.	.	8r	.	.	.	.	.	.	.
.	.	8BB	Ja-	.	.	.	.	.	.
2r	.	8C	-mai-	.	.	.	(A	.	.
.	.	8C	-ca,	.	.	.	a)	.	.
.	.	8r	.	.	.	.	.	.	.
.	.	8C	ooh	.	.	.	.	.	.
=87	=87	=87	=87	=87	=87	=87	=87	=87	=87
1r	.	8D	_	1CM	.	voice	.	.	C:maj
.	.	8C	I	.	.	.	.	.	.
.	.	8C	want	.	.	.	.	.	.
.	.	8BB	to	.	.	.	.	.	.
.	.	8C	take	.	.	.	(A	.	.
.	.	8C	ya	.	.	.	a)	.	.
.	.	8r	.	.	.	.	.	.	.
.	.	8E	Ber-	.	.	.	.	.	.
=88	=88	=88	=88	=88	=88	=88	=88	=88	=88
1r	.	8F	-mu-	1FM	.	voice	.	.	F:maj
.	.	8F	-da,	.	.	.	.	.	.
.	.	8r	.	.	.	.	.	.	.
.	.	8E	Ba-	.	.	.	.	.	.
.	.	8F	-ha-	.	.	.	(B	.	.
.	.	8F	-ma,	.	.	.	b)	.	.
.	.	8r	.	.	.	.	.	.	.
.	.	8F	come	.	.	.	.	.	.
=89	=89	=89	=89	=89	=89	=89	=89	=89	=89
1r	.	8G	_	1FM	.	voice	.	.	F:maj
.	.	8F	on	.	.	.	.	.	.
.	.	8F	pret-	.	.	.	.	.	.
.	.	8E	-ty	.	.	.	.	.	.
.	.	8F	ma-	.	.	.	(B	.	.
.	.	8F	-ma	.	.	.	b)	.	.
.	.	8r	.	.	.	.	.	.	.
.	.	8BB	Key	.	.	.	.	.	.
=90	=90	=90	=90	=90	=90	=90	=90	=90	=90
2r	.	8C	Lar-	1CM	newline	voice	.	184.965	C:maj
.	.	8C	-go,	.	.	.	c	.	.
.	.	8r	.	.	.	.	.	.	.
.	.	8BB	Mon-	.	.	.	.	.	.
4r	.	8C	-te-	.	.	.	(C	.	.
.	.	8C	-go,	.	.	.	c)	.	.
[4g	Ooh	8r	.	.	.	.	.	.	.
.	.	8C	ba-	.	.	.	.	.	.
=91	=91	=91	=91	=91	=91	=91	=91	=91	=91
8g]	_	8D	_	1CM	.	voice	.	.	C:maj
8g	I	8C	-by	.	.	.	.	.	.
8f#	want	8C	why	.	.	.	.	.	.
8g	to	8BB	don't	.	.	.	.	.	.
8f#	take	8C	we	.	.	.	(C	.	.
8g	you	8C	go,	.	.	.	c)	.	.
8f#	down	4r	.	.	.	.	.	.	.
8g	to	.	.	.	.	.	.	.	.
=92	=92	=92	=92	=92	=92	=92	=92	=92	=92
8f	Ko-	1r	.	1FM	.	voice	(C	.	F:maj
8e	-ko	.	.	.	.	.	c	.	.
8c	_	.	.	.	.	.	.	.	.
[8c	mo	.	.	.	.	.	C)	.	.
8c]	_	.	.	.	.	.	.	.	.
8r	.	.	.	.	.	.	.	.	.
8r	.	.	.	.	.	.	.	.	.
8e	we'll	.	.	.	.	.	.	.	.
=93	=93	=93	=93	=93	=93	=93	=93	=93	=93
8f	get	1r	.	1Fm	.	voice	.	.	F:min
4e	there	.	.	.	.	.	.	.	.
[8d	fast	.	.	.	.	.	.	.	.
8d]	_	.	.	.	.	.	.	.	.
8c	and	.	.	.	.	.	.	.	.
8d	then	.	.	.	.	.	.	.	.
8c	we'll	.	.	.	.	.	.	.	.
=94	=94	=94	=94	=94	=94	=94	=94	=94	=94
8d	take	1r	.	1CM	newline	voice	.	193.249	C:maj
4e	it	.	.	.	.	.	.	.	.
[8e	slow	.	.	.	.	.	C	.	.
4e]	_	.	.	.	.	.	.	.	.
4r	.	.	.	.	.	.	.	.	.
=95	=95	=95	=95	=95	=95	=95	=95	=95	=95
4.a	That's	1r	.	1Am	.	voice	.	.	A:min
[8g	where	.	.	.	.	.	.	.	.
4g]	_	.	.	.	.	.	.	.	.
8d	we	.	.	.	.	.	.	.	.
8e	_	.	.	.	.	.	.	.	.
=96	=96	=96	=96	=96	=96	=96	=96	=96	=96
8d	want	1r	.	1Dm	.	voice	.	.	D:min
8c	_	.	.	.	.	.	.	.	.
8c	to	.	.	.	.	.	.	.	.
8c	go,	.	.	.	.	.	C	.	.
8G	_	.	.	.	.	.	.	.	.
8A	_	.	.	.	.	.	.	.	.
4r	.	.	.	.	.	.	.	.	.
=97	=97	=97	=97	=97	=97	=97	=97	=97	=97
8r	.	2r	.	1GM	.	voice	.	.	G:maj
8f	way	.	.	.	.	.	.	.	.
8f	down	.	.	.	.	.	.	.	.
8e	in	.	.	.	.	.	.	.	.
8c	Ko-	4r	.	.	.	.	(C	.	.
8G	-ko-	.	.	.	.	.	c	.	.
8A	-mo	8r	.	.	.	.	C)	.	.
[8c	_	8BB	A-	.	.	.	.	.	.
=98	=98	=98	=98	=98	=98	=98	=98	=98	=98
*>Letter>C	*>Letter>C	*>Letter>C	*>Letter>C	*>Letter>C	*>Letter>C	*>Letter>C	*>Letter>C	*>Letter>C	*>Letter>C
*>Label>Chorus	*>Label>Chorus	*>Label>Chorus	*>Label>Chorus	*>Label>Chorus	*>Label>Chorus	*>Label>Chorus	*>Label>Chorus	*>Label>Chorus	*>Label>Chorus
2c]	_	8C	-ru-	1CM	newline	voice	.	201.53	C:maj
.	.	8C	-ba,	.	.	.	a	.	.
.	.	8r	.	.	.	.	.	.	.
.	.	8BB	Ja-	.	.	.	.	.	.
2r	.	8C	-mai-	.	.	.	(A	.	.
.	.	8C	-ca,	.	.	.	a)	.	.
.	.	8r	.	.	.	.	.	.	.
.	.	8C	ooh	.	.	.	.	.	.
=99	=99	=99	=99	=99	=99	=99	=99	=99	=99
1r	.	8D	_	1CM	.	voice	.	.	C:maj
.	.	8C	I	.	.	.	.	.	.
.	.	8C	want	.	.	.	.	.	.
.	.	8BB	to	.	.	.	.	.	.
.	.	8C	take	.	.	.	(A	.	.
.	.	8C	ya	.	.	.	a)	.	.
.	.	8r	.	.	.	.	.	.	.
.	.	8E	Ber-	.	.	.	.	.	.
=100	=100	=100	=100	=100	=100	=100	=100	=100	=100
1r	.	8F	-mu-	1FM	.	voice	.	.	F:maj
.	.	8F	-da,	.	.	.	a	.	.
.	.	8r	.	.	.	.	.	.	.
.	.	8E	Ba-	.	.	.	.	.	.
.	.	8F	-ha-	.	.	.	(B	.	.
.	.	8F	-ma,	.	.	.	b)	.	.
.	.	8r	.	.	.	.	.	.	.
.	.	8F	come	.	.	.	.	.	.
=101	=101	=101	=101	=101	=101	=101	=101	=101	=101
1r	.	8G	_	1FM	.	voice	.	.	F:maj
.	.	8F	on	.	.	.	.	.	.
.	.	8F	pret-	.	.	.	.	.	.
.	.	8E	-ty	.	.	.	.	.	.
.	.	8F	ma-	.	.	.	(B	.	.
.	.	8F	-ma	.	.	.	b)	.	.
.	.	8r	.	.	.	.	.	.	.
.	.	8BB	Key	.	.	.	.	.	.
=102	=102	=102	=102	=102	=102	=102	=102	=102	=102
1r	.	8C	Lar-	1CM	newline	voice	.	205.764	C:maj
.	.	8C	-go,	.	.	.	c	.	.
.	.	8r	.	.	.	.	.	.	.
.	.	8BB	Mon-	.	.	.	.	.	.
.	.	8C	-te-	.	.	.	(C	.	.
.	.	8C	-go,	.	.	.	c)	.	.
.	.	8r	.	.	.	.	.	.	.
.	.	8C	ba-	.	.	.	.	.	.
=103	=103	=103	=103	=103	=103	=103	=103	=103	=103
1r	.	8D	_	1CM	.	voice	.	.	C:maj
.	.	8C	-by	.	.	.	.	.	.
.	.	8C	why	.	.	.	.	.	.
.	.	8BB	don't	.	.	.	.	.	.
.	.	8C	we	.	.	.	(C	.	.
.	.	8C	go,	.	.	.	c)	.	.
.	.	4r	.	.	.	.	.	.	.
=104	=104	=104	=104	=104	=104	=104	=104	=104	=104
1r	.	1r	.	1FM	.	voice	.	.	F:maj
=105	=105	=105	=105	=105	=105	=105	=105	=105	=105
1r	.	1r	.	1Fm	.	voice	.	.	F:min
r;	.	r;	.	1r;	.	r	.	214.356	N.C.
r;	.	r;	.	1r;	.	r	.	217.615	N.C.
*-	*-	*-	*-	*-	*-	*-	*-	*-	*-
!!!BillboardChartDate: 1988/09/17
!!!BillboardPeak: 1
!!!BillboardWeeksOnChart: 28
!!!COC: The Beach Boys
!!!EMD: A lot of stuff marked "N" (no-chord) should have (implied) chords in transcription.
!!!ENC: Nathaniel Condit-Schultz
!!!EST: Awating manual error checking and editing.
!!!OTL: Kokomo (from the film Cocktail)
!!!RDF**chordsym: original McGill chord annotation + (implied pitch class set, with bass pitch in first position)
!!!RDF**harmony: **recip + pitch class of root + harmonic quality
!!!RDF**leadinstrument: original McGill primary instrumentation annotation
!!!RDF**phrase: newline = linebreak in original McGill transcription
!!!RDF**timestamp: McGill audio timestamp in seconds
!!!RDT: 2017/01/12/
!!!SampleActualRank: 58
!!!SampleID#: 0974
!!!SampleTargetRank: 57
